apps/frontend/src/assets/svg/ranks/5.svg

<svg width="236" height="278" viewBox="0 0 236 278" fill="none" xmlns="http://www.w3.org/2000/svg">
<g filter="url(#filter0_d_10_2)">
<path d="M104.513 9.18793L86.5586 151.507L28.1309 134.896L104.513 9.18793Z" fill="url(#paint0_linear_10_2)"/>
<path d="M104.513 9.18793L147.411 153.932L86.5585 151.507L104.513 9.18793Z" fill="url(#paint1_linear_10_2)"/>
<path d="M104.513 9.18793L203.558 136.666L147.411 153.932L104.513 9.18793Z" fill="url(#paint2_linear_10_2)"/>
<path d="M105.722 8.27191L104.375 6.53821L103.217 8.444L26.8352 134.152L25.8347 135.798L27.6847 136.324L86.1124 152.935L86.2865 152.985L86.4685 152.992L147.321 155.418L147.585 155.428L147.838 155.35L203.985 138.084L206.08 137.44L204.767 135.75L105.722 8.27191Z" stroke="white" stroke-width="3"/>
<path d="M204.836 137.439L207.002 134.063L203.123 135.256L146.981 152.52L145.898 152.854L145.895 153.957L145.725 224.449L145.713 229.577L148.525 225.196L204.836 137.439Z" fill="url(#paint3_linear_10_2)" stroke="white" stroke-width="3"/>
<path d="M146.722 225.829L151.787 227.522L148.42 223.475L87.7473 150.558L86.7196 149.323L85.5238 150.447L44.2205 189.276L42.4243 190.965L44.7462 191.741L146.722 225.829Z" fill="url(#paint4_linear_10_2)" stroke="white" stroke-width="3"/>
<path d="M146.059 225.345L148.749 228.579L148.76 224.454L148.934 153.962L148.937 152.519L147.451 152.46L86.6042 150.032L83.2847 149.9L85.3866 152.426L146.059 225.345Z" fill="url(#paint5_linear_10_2)" stroke="white" stroke-width="3"/>
<path d="M87.6192 152.597L89.5165 150.806L86.9598 150.079L28.5228 133.463L25.874 132.71L26.6874 135.311L44.0151 190.729L44.7452 193.064L46.5099 191.398L87.6192 152.597Z" fill="url(#paint6_linear_10_2)" stroke="white" stroke-width="3"/>
<path d="M89.8331 175.319C102.961 175.349 113.629 165.126 113.66 152.486C113.691 139.846 103.074 129.575 89.9459 129.545C76.818 129.515 66.1504 139.737 66.1193 152.377" stroke="white" stroke-width="3"/>
</g>
<defs>
<filter id="filter0_d_10_2" x="0.529785" y="0.898621" width="232.947" height="276.811" filterUnits="userSpaceOnUse" color-interpolation-filters="sRGB">
<feFlood flood-opacity="0" result="BackgroundImageFix"/>
<feColorMatrix in="SourceAlpha" type="matrix" values="0 0 0 0 0 0 0 0 0 0 0 0 0 0 0 0 0 0 127 0" result="hardAlpha"/>
<feOffset dy="20"/>
<feGaussianBlur stdDeviation="11.5"/>
<feComposite in2="hardAlpha" operator="out"/>
<feColorMatrix type="matrix" values="0 0 0 0 1 0 0 0 0 1 0 0 0 0 1 0 0 0 0.25 0"/>
<feBlend mode="normal" in2="BackgroundImageFix" result="effect1_dropShadow_10_2"/>
<feBlend mode="normal" in="SourceGraphic" in2="effect1_dropShadow_10_2" result="shape"/>
</filter>
<linearGradient id="paint0_linear_10_2" x1="84.4063" y1="62.2433" x2="56.2172" y2="216.822" gradientUnits="userSpaceOnUse">
<stop offset="0.22078" stop-color="#B9F2FF"/>
<stop offset="0.813447" stop-color="white"/>
<stop offset="0.963542" stop-color="#B9F2FF" stop-opacity="0.195431"/>
<stop offset="1" stop-color="#B9F2FF" stop-opacity="0"/>
</linearGradient>
<linearGradient id="paint1_linear_10_2" x1="103.226" y1="141.933" x2="101.8" y2="-5.46353" gradientUnits="userSpaceOnUse">
<stop stop-color="#B9F2FF"/>
<stop offset="1" stop-color="white"/>
</linearGradient>
<linearGradient id="paint2_linear_10_2" x1="159.516" y1="30.2988" x2="147.841" y2="155.392" gradientUnits="userSpaceOnUse">
<stop offset="0.388035" stop-color="#B9F2FF"/>
<stop offset="1" stop-color="white"/>
</linearGradient>
<linearGradient id="paint3_linear_10_2" x1="189.735" y1="149.454" x2="98.4639" y2="154.166" gradientUnits="userSpaceOnUse">
<stop stop-color="#B9F2FF"/>
<stop offset="1" stop-color="white"/>
</linearGradient>
<linearGradient id="paint4_linear_10_2" x1="110.674" y1="206.491" x2="65.6427" y2="118.002" gradientUnits="userSpaceOnUse">
<stop offset="0.140194" stop-color="#B9F2FF"/>
<stop offset="1" stop-color="white"/>
</linearGradient>
<linearGradient id="paint5_linear_10_2" x1="83.1255" y1="196.816" x2="201.981" y2="110.938" gradientUnits="userSpaceOnUse">
<stop offset="0.193643" stop-color="#B9F2FF"/>
<stop offset="0.794347" stop-color="white"/>
</linearGradient>
<linearGradient id="paint6_linear_10_2" x1="9.53082" y1="158.197" x2="101.744" y2="152.008" gradientUnits="userSpaceOnUse">
<stop offset="0.201632" stop-color="#B9F2FF"/>
<stop offset="1" stop-color="white"/>
</linearGradient>
</defs>
</svg>

<svg xmlns="http://www.w3.org/2000/svg" width="236" height="278" fill="none"><g filter="url(#a)"><path fill="url(#b)" d="M104.513 9.188 86.559 151.507 28.13 134.896 104.513 9.188Z"/><path fill="url(#c)" d="m104.513 9.188 42.898 144.744-60.853-2.425 17.955-142.32Z"/><path fill="url(#d)" d="m104.513 9.188 99.045 127.478-56.147 17.266L104.513 9.188Z"/><path stroke="#fff" stroke-width="3" d="m105.722 8.272-1.347-1.734-1.158 1.906-76.382 125.708-1 1.646 1.85.526 58.427 16.611.175.05.181.007 60.853 2.426.264.01.253-.078 56.147-17.266 2.095-.644-1.313-1.69L105.722 8.272Z"/><path fill="url(#e)" stroke="#fff" stroke-width="3" d="m204.836 137.439 2.166-3.376-3.879 1.193-56.142 17.264-1.083.334-.003 1.103-.17 70.492-.012 5.128 2.812-4.381 56.311-87.757Z"/><path fill="url(#f)" stroke="#fff" stroke-width="3" d="m146.722 225.829 5.065 1.693-3.367-4.047-60.673-72.917-1.027-1.235-1.196 1.124-41.303 38.829-1.797 1.689 2.322.776 101.976 34.088Z"/><path fill="url(#g)" stroke="#fff" stroke-width="3" d="m146.059 225.345 2.69 3.234.011-4.125.174-70.492.003-1.443-1.486-.059-60.847-2.428-3.32-.132 2.103 2.526 60.672 72.919Z"/><path fill="url(#h)" stroke="#fff" stroke-width="3" d="m87.62 152.597 1.896-1.791-2.556-.727-58.437-16.616-2.649-.753.813 2.601 17.328 55.418.73 2.335 1.765-1.666 41.11-38.801Z"/><path stroke="#fff" stroke-width="3" d="M89.833 175.319c13.128.03 23.796-10.193 23.827-22.833.031-12.64-10.586-22.911-23.714-22.941-13.128-.03-23.796 10.192-23.827 22.832"/></g><defs><linearGradient id="b" x1="84.406" x2="56.217" y1="62.243" y2="216.822" gradientUnits="userSpaceOnUse"><stop offset=".221" stop-color="#B9F2FF"/><stop offset=".813" stop-color="#fff"/><stop offset=".964" stop-color="#B9F2FF" stop-opacity=".195"/><stop offset="1" stop-color="#B9F2FF" stop-opacity="0"/></linearGradient><linearGradient id="c" x1="103.226" x2="101.8" y1="141.933" y2="-5.464" gradientUnits="userSpaceOnUse"><stop stop-color="#B9F2FF"/><stop offset="1" stop-color="#fff"/></linearGradient><linearGradient id="d" x1="159.516" x2="147.841" y1="30.299" y2="155.392" gradientUnits="userSpaceOnUse"><stop offset=".388" stop-color="#B9F2FF"/><stop offset="1" stop-color="#fff"/></linearGradient><linearGradient id="e" x1="189.735" x2="98.464" y1="149.454" y2="154.166" gradientUnits="userSpaceOnUse"><stop stop-color="#B9F2FF"/><stop offset="1" stop-color="#fff"/></linearGradient><linearGradient id="f" x1="110.674" x2="65.643" y1="206.491" y2="118.002" gradientUnits="userSpaceOnUse"><stop offset=".14" stop-color="#B9F2FF"/><stop offset="1" stop-color="#fff"/></linearGradient><linearGradient id="g" x1="83.126" x2="201.981" y1="196.816" y2="110.938" gradientUnits="userSpaceOnUse"><stop offset=".194" stop-color="#B9F2FF"/><stop offset=".794" stop-color="#fff"/></linearGradient><linearGradient id="h" x1="9.531" x2="101.744" y1="158.197" y2="152.008" gradientUnits="userSpaceOnUse"><stop offset=".202" stop-color="#B9F2FF"/><stop offset="1" stop-color="#fff"/></linearGradient><filter id="a" width="232.947" height="276.811" x=".53" y=".899" color-interpolation-filters="sRGB" filterUnits="userSpaceOnUse"><feFlood flood-opacity="0" result="BackgroundImageFix"/><feColorMatrix in="SourceAlpha" result="hardAlpha" values="0 0 0 0 0 0 0 0 0 0 0 0 0 0 0 0 0 0 127 0"/><feOffset dy="20"/><feGaussianBlur stdDeviation="11.5"/><feComposite in2="hardAlpha" operator="out"/><feColorMatrix values="0 0 0 0 1 0 0 0 0 1 0 0 0 0 1 0 0 0 0.25 0"/><feBlend in2="BackgroundImageFix" result="effect1_dropShadow_10_2"/><feBlend in="SourceGraphic" in2="effect1_dropShadow_10_2" result="shape"/></filter></defs></svg>
